{ "compressionlevel":-1,
 "height":6,
 "infinite":false,
 "layers":[
        {
         "data":[2, 2, 2, 2, 2, 2, 2, 2,
            2, 3, 3, 2, 3, 3, 3, 2,
            2, 2, 3, 3, 3, 3, 3, 2,
            2, 3, 3, 3, 3, 3, 2, 2,
            2, 3, 3, 3, 3, 3, 3, 2,
            2, 2, 2, 2, 2, 2, 2, 2],
         "height":6,
         "id":2,
         "name":"Level",
         "opacity":1,
         "type":"tilelayer",
         "visible":true,
         "width":8,
         "x":0,
         "y":0
        }, 
        {
         "data":[0, 0, 0, 0, 0, 0, 0, 0,
            0, 0, 0, 0, 0, 0, 0, 0,
            0, 0, 0, 0, 1, 0, 0, 0,
            0, 0, 0, 4, 0, 4, 0, 0,
            0, 0, 0, 0, 0, 0, 0, 0,
            0, 0, 0, 0, 0, 0, 0, 0],
         "height":6,
         "id":1,
         "name":"Entities",
         "opacity":1,
         "type":"tilelayer",
         "visible":true,
         "width":8,
         "x":0,
         "y":0
        }],
 "nextlayerid":3,
 "nextobjectid":1,
 "orientation":"orthogonal",
 "renderorder":"right-down",
 "tiledversion":"1.12.2",
 "tileheight":32,
 "tilesets":[
        {
         "firstgid":1,
         "source":"..\/..\/..\/sokoban0.tsx"
        }],
 "tilewidth":32,
 "type":"map",
 "version":"1.10",
 "width":8
}